X:1
T:Homes Are God’s Purest Shrines
T:Homes Are God’s Purest Shrines
T:Clarence Biddle Felton
T:Clarence Biddle Felton, 1920
T:Public Domain Courtesy of the Cyber Hymnal™
C:Clarence Biddle Felton
Z:Public Domain
Z:Courtesy of the Cyber Hymnal™
%%score ( 1 2 ) ( 3 4 )
L:1/8
M:3/4
K:Eb
V:1 treble 
V:2 treble 
V:3 bass 
V:4 bass 
V:1
 [EG]2 [E^F]2 [EG]2 | [DF]4 [DG]2 | !fermata![CE]6 | [EB]2 [EB]2 [EB]2 | [EA]4 [EA]2 | [EG]6 | %6
w: 1.~Homes are God’s|pur- est|shrines|Where His love|strong- est|speak-|
w: 2.~Words that were|wise and|pure|Down thro’ the|years re-|sound-|
w: 3.~Our paths of|ser- vice|course|Thro’ ma- ny|fields and|na-|
w: 4.~The calls to|du- ty|come,|Bring- ing their|joy and|sor-|
w: 5.~Here we shall|meet no|more|In this home|filled with|mem-|
 [DF]6 | [EG]2 [EG]2 [EG]2 | [DA]4 [DA]2 | [EB]2 [EG]2 E2 | [Ec]6 | [EB]2 E2 [EA]2 | [EG]4 [DF]2 | %13
w: eth;|In these loved|walls we’ve|felt all the|days,|That which the|heart e’er|
w: ed;|Sent us all|forth with|pur- pos- es|strong|Be- cause in|Him we’re|
w: tions;|But all the|roads lead|on t’ward His|home,|Blest of all|ha- bi-|
w: row;|And when they|come we|love to o-|bey,|Trust- ing in|God’s to-|
w: ’ries;|’Tis God’s good|will, for|each of us|best;|He will re-|veal more|
 [DF]6 | [B,E]6 |] %15
w: seek-|eth.|
w: ground-|ed.|
w: ta-|tions.|
w: mor-|row.|
w: glor-|ies.|
V:2
 x6 | x6 | x6 | x6 | x6 | x6 | x6 | x6 | x6 | x4 E2 | x6 | x2 E2 x2 | x6 | x6 | x6 |] %15
V:3
 [E,B,]2 [E,=A,]2 [E,B,]2 | [B,,A,]4 [B,,B,]2 | !fermata![C,G,]6 | [G,B,]2 [G,B,]2 [G,B,]2 | %4
 [A,C]4 [A,C]2 | B,6 | [B,,B,]6 | [E,B,]2 [E,B,]2 [E,B,]2 | [F,B,]4 [F,B,]2 | %9
 [G,B,]2 [G,B,]2 [G,B,]2 | [A,C]6 | [G,B,]2 [G,B,]2 [A,C]2 | B,4 [B,,A,]2 | [B,,A,]6 | [E,G,]6 |] %15
V:4
 x6 | x6 | x6 | x6 | x6 | B,6 | x6 | x6 | x6 | x6 | x6 | x6 | B,4 x2 | x6 | x6 |] %15

